src/assets/svg/car-brands/Group.svg

<svg width="32" height="21" viewBox="0 0 32 21" fill="currentColor" xmlns="http://www.w3.org/2000/svg">
<path d="M3.68739 16.983L4.17594 17.0412C4.39695 17.0644 4.42021 17.2505 4.42021 17.3669V17.9368H2.17521V17.3669C2.17521 17.2505 2.19847 17.0644 2.41948 17.0412L2.90803 16.983V16.4945H0V16.983L0.48855 17.0412C0.70956 17.0644 0.732824 17.2505 0.732824 17.3669V19.2513C0.732824 19.3676 0.70956 19.5537 0.48855 19.577L0 19.6351V20.1237H2.90803V19.6351L2.41948 19.577C2.19847 19.5537 2.17521 19.3676 2.17521 19.2513V18.6813H4.40858V19.2513C4.40858 19.3676 4.38531 19.5537 4.1643 19.577L3.67575 19.6351V20.1237H6.58379V19.6351L6.09524 19.577C5.87423 19.5537 5.85096 19.3676 5.85096 19.2513V17.3669C5.85096 17.2505 5.87423 17.0644 6.09524 17.0412L6.58379 16.983V16.4945H3.67575V16.983H3.68739Z" fill="currentColor"/>
<path d="M23.0549 16.4945H19.4722V16.983L19.9026 17.0295C20.0538 17.0528 20.1585 17.111 20.1585 17.3203V19.2396C20.1585 19.356 20.1352 19.5421 19.9142 19.5653L19.4257 19.6235V20.112H23.0549C24.3577 20.112 25.4278 19.5886 25.4278 18.2974C25.4278 17.0063 24.3577 16.4945 23.0549 16.4945ZM22.7873 19.4258H21.566V17.1924H22.7873C23.5085 17.1924 23.7528 17.5297 23.7528 18.3091C23.7528 19.0768 23.5085 19.4258 22.7873 19.4258Z" fill="currentColor"/>
<path d="M31.5231 19.577C31.2905 19.5537 31.2207 19.4025 31.1509 19.2978L29.4759 16.7387C29.3595 16.5526 29.2665 16.4945 29.092 16.4945H26.3468V16.983L27.0099 17.0528C27.1029 17.0644 27.2309 17.1924 27.1262 17.3552L25.8815 19.3676C25.835 19.449 25.7652 19.5421 25.6256 19.5653L25.1371 19.6235V20.112H27.4519V19.6235L27.0564 19.5886C26.8819 19.5653 26.7888 19.449 26.8819 19.3094L27.068 19.007H29.3014L29.4642 19.2513C29.6155 19.4723 29.4293 19.5653 29.2665 19.577L28.8594 19.6235V20.112H32V19.6235L31.5231 19.577ZM27.4519 18.3672L28.1382 17.2505L28.871 18.3672H27.4519Z" fill="currentColor"/>
<path d="M16.8782 16.9828L17.3667 17.041C17.5877 17.0642 17.611 17.2504 17.611 17.3667V19.1813L15.6917 16.6455C15.6103 16.5292 15.5289 16.4943 15.3195 16.4943H12.8302V16.9828L13.3187 17.041C13.5398 17.0642 13.563 17.2504 13.563 17.3667V19.2511C13.563 19.3674 13.5398 19.5535 13.3187 19.5768L12.8302 19.635V20.1235H15.1566V19.635L14.6681 19.5768C14.4471 19.5535 14.4238 19.3674 14.4238 19.2511V17.4365L16.3431 19.9607C16.4362 20.077 16.506 20.1119 16.7153 20.1119H16.7386H18.4834V17.3551C18.4834 17.2387 18.5067 17.0526 18.7277 17.0294L19.2162 16.9712V16.4826H16.9014L16.8782 16.9828Z" fill="currentColor"/>
<path d="M9.70118 16.3663C7.33986 16.3663 6.73499 17.4016 6.73499 18.2973C6.73499 19.1929 7.33986 20.2398 9.70118 20.2398C12.0625 20.2398 12.6674 19.2046 12.6674 18.3089C12.6674 17.4016 12.0625 16.3663 9.70118 16.3663ZM9.70118 19.5535C8.78224 19.5535 8.41001 19.1697 8.41001 18.3089C8.41001 17.4481 8.79387 17.0642 9.70118 17.0642C10.6201 17.0642 10.9923 17.4481 10.9923 18.3089C10.9923 19.1697 10.6201 19.5535 9.70118 19.5535Z" fill="currentColor"/>
<path d="M20.0189 1.1982C19.6234 2.97792 19.4606 3.8038 19.1349 5.08333C18.8208 6.31634 18.5765 7.46792 18.1578 8.02626C17.739 8.59624 17.1691 8.71256 16.7852 8.75909C16.5874 8.78235 16.4362 8.79398 16.0058 8.79398C15.5754 8.79398 15.4242 8.78235 15.2265 8.75909C14.8426 8.71256 14.2727 8.59624 13.8539 8.02626C13.4351 7.46792 13.1909 6.31634 12.8884 5.08333C12.5627 3.79217 12.3999 2.97792 12.0044 1.1982C12.0044 1.1982 11.6089 1.20983 11.4344 1.22146C11.1901 1.2331 11.004 1.25636 10.8063 1.27963C10.8063 1.27963 11.0389 4.94375 11.1436 6.50245C11.2483 8.13095 11.446 10.8878 11.6205 12.9699C11.6205 12.9699 11.9579 13.0281 12.5162 13.0513C13.0978 13.0862 13.3653 13.0862 13.3653 13.0862C13.6096 12.1673 13.9004 10.8994 14.2378 10.3527C14.5169 9.91067 14.9357 9.86414 15.18 9.82924C15.5522 9.78271 15.8779 9.77108 16.0175 9.77108C16.1687 9.77108 16.4828 9.77108 16.855 9.82924C17.0993 9.86414 17.518 9.91067 17.7972 10.3527C18.1345 10.8994 18.437 12.1673 18.6696 13.0862C18.6696 13.0862 18.9255 13.0862 19.5071 13.0513C20.0655 13.0164 20.4028 12.9699 20.4028 12.9699C20.5773 10.8878 20.775 8.14258 20.8797 6.50245C20.9844 4.95538 21.217 1.27963 21.217 1.27963C21.0193 1.25636 20.8215 1.2331 20.5889 1.22146C20.4144 1.20983 20.0189 1.1982 20.0189 1.1982Z" fill="currentColor"/>
<path d="M24.6369 3.36169C24.4042 1.03526 22.8455 0.54671 21.4846 0.314068C20.7983 0.197746 19.5769 0.104689 18.7976 0.0697928C18.1113 0.0232641 16.506 0 16.0175 0C15.5289 0 13.9237 0.0232643 13.2374 0.0697928C12.458 0.104689 11.2367 0.197746 10.5504 0.314068C9.18941 0.54671 7.63071 1.03526 7.39806 3.36169C7.32827 4.00145 7.31664 4.82734 7.32827 5.71138C7.35153 7.18866 7.47949 8.17739 7.54928 8.87532C7.59581 9.35224 7.79356 10.7714 8.04946 11.5042C8.39843 12.5162 8.71249 12.807 9.08472 13.1094C9.75939 13.6561 10.8761 13.8306 11.1087 13.8771C12.365 14.0981 14.9008 14.1447 16.0291 14.1447C17.1458 14.1447 19.6932 14.1098 20.9495 13.8771C21.1821 13.8306 22.2988 13.6678 22.9735 13.1094C23.3457 12.807 23.6598 12.5162 24.0087 11.5042C24.2647 10.7714 24.4624 9.3406 24.5089 8.87532C24.5787 8.18902 24.7067 7.18866 24.7299 5.71138C24.7183 4.8157 24.695 3.98982 24.6369 3.36169ZM23.7761 7.27008C23.6365 9.13123 23.4737 10.2479 23.241 11.0505C23.0316 11.7601 22.7757 12.2254 22.4035 12.5627C21.7754 13.1327 20.9146 13.249 20.4028 13.3304C19.3094 13.4933 17.4599 13.5514 16.0175 13.5514C14.5635 13.5514 12.7256 13.4933 11.6322 13.3304C11.1203 13.249 10.2596 13.1327 9.63143 12.5627C9.2592 12.2254 9.0033 11.7485 8.79392 11.0505C8.56128 10.2479 8.38679 9.13123 8.25884 7.27008C8.17741 6.1534 8.18905 4.33879 8.317 3.36169C8.49148 1.89604 9.21268 1.16321 10.7597 0.895674C11.4809 0.767721 12.458 0.674664 13.377 0.628135C14.1214 0.581607 15.3312 0.558342 16.0175 0.558342C16.6921 0.54671 17.9135 0.581607 18.6463 0.628135C19.5653 0.674664 20.5424 0.767721 21.2636 0.895674C22.8106 1.17485 23.5318 1.90767 23.7179 3.36169C23.8459 4.32715 23.8575 6.14177 23.7761 7.27008Z" fill="currentColor"/>
</svg>

<svg xmlns="http://www.w3.org/2000/svg" width="32" height="21" fill="currentColor" viewBox="0 0 32 21"><path d="m3.687 16.983.489.058c.221.023.244.21.244.326v.57H2.175v-.57c0-.117.023-.303.244-.326l.489-.058v-.489H0v.489l.489.058c.22.023.244.21.244.326v1.884c0 .117-.023.303-.244.326L0 19.635v.489h2.908v-.489l-.489-.058c-.22-.023-.244-.21-.244-.326v-.57H4.41v.57c0 .117-.024.303-.245.326l-.488.058v.489h2.908v-.489l-.489-.058c-.22-.023-.244-.21-.244-.326v-1.884c0-.117.023-.303.244-.326l.489-.058v-.489H3.676v.489zm19.368-.488h-3.583v.488l.43.046c.152.024.256.082.256.291v1.92c0 .116-.023.302-.244.325l-.488.058v.489h3.629c1.303 0 2.373-.523 2.373-1.815 0-1.29-1.07-1.803-2.373-1.803m-.268 2.93h-1.221v-2.233h1.221c.722 0 .966.338.966 1.117 0 .768-.244 1.117-.966 1.117"/><path d="M31.523 19.577c-.232-.023-.302-.175-.372-.28l-1.675-2.558c-.116-.186-.21-.245-.384-.245h-2.745v.489l.663.07a.19.19 0 0 1 .116.302l-1.245 2.013c-.046.081-.116.174-.255.197l-.489.058v.489h2.315v-.488l-.396-.035c-.174-.024-.267-.14-.174-.28l.186-.302h2.233l.163.244c.152.221-.035.314-.197.326l-.408.046v.489H32v-.488zm-4.071-1.21.686-1.117.733 1.117zm-10.574-1.384.489.058c.22.023.244.21.244.326v1.814l-1.92-2.536c-.08-.116-.162-.15-.372-.15H12.83v.488l.489.058c.22.023.244.21.244.326v1.884c0 .116-.023.302-.244.326l-.489.058v.488h2.327v-.488l-.489-.058c-.22-.024-.244-.21-.244-.326v-1.815l1.92 2.525c.092.116.162.15.371.15h1.768v-2.756c0-.116.024-.302.245-.326l.488-.058v-.488h-2.315zm-7.177-.617c-2.361 0-2.966 1.036-2.966 1.931 0 .896.605 1.943 2.966 1.943s2.966-1.035 2.966-1.931c0-.907-.604-1.943-2.966-1.943m0 3.188c-.919 0-1.291-.384-1.291-1.245 0-.86.384-1.245 1.291-1.245.92 0 1.291.384 1.291 1.245 0 .86-.372 1.244-1.29 1.244M20.019 1.198c-.396 1.78-.558 2.606-.884 3.885-.314 1.233-.559 2.385-.977 2.943-.419.57-.989.687-1.373.733a6 6 0 0 1-.78.035c-.43 0-.58-.012-.778-.035-.384-.046-.954-.163-1.373-.733-.419-.558-.663-1.71-.966-2.943-.325-1.29-.488-2.105-.884-3.885 0 0-.395.012-.57.023-.244.012-.43.035-.628.059 0 0 .233 3.664.338 5.222a386 386 0 0 0 .476 6.468s.338.058.896.081c.582.035.85.035.85.035.244-.919.534-2.187.872-2.733.279-.442.698-.489.942-.524.372-.046.698-.058.837-.058.152 0 .466 0 .838.058.244.035.663.082.942.524.337.546.64 1.814.873 2.733 0 0 .255 0 .837-.035.558-.035.896-.081.896-.081.174-2.082.372-4.827.477-6.468.104-1.547.337-5.222.337-5.222a9 9 0 0 0-.628-.059c-.175-.011-.57-.023-.57-.023"/><path d="M24.637 3.362C24.404 1.035 22.846.547 21.485.314c-.687-.116-1.908-.21-2.687-.244C18.11.023 16.506 0 16.018 0c-.49 0-2.094.023-2.78.07-.78.035-2.001.128-2.688.244-1.36.233-2.92.721-3.152 3.048-.07.64-.081 1.465-.07 2.35.024 1.477.151 2.465.221 3.163.047.477.245 1.896.5 2.63.35 1.011.663 1.302 1.036 1.604.674.547 1.791.722 2.024.768 1.256.221 3.792.268 4.92.268 1.117 0 3.664-.035 4.92-.268.233-.046 1.35-.21 2.024-.768.373-.302.687-.593 1.036-1.605.256-.733.453-2.163.5-2.629.07-.686.198-1.686.22-3.164-.01-.895-.034-1.721-.092-2.35m-.86 3.908c-.14 1.861-.303 2.978-.536 3.78-.21.71-.465 1.175-.837 1.513-.629.57-1.49.686-2.001.767-1.094.163-2.943.221-4.385.221-1.455 0-3.292-.058-4.386-.22-.512-.082-1.372-.198-2-.768-.373-.338-.629-.815-.838-1.513-.233-.802-.407-1.919-.535-3.78-.082-1.117-.07-2.931.058-3.908.174-1.466.896-2.199 2.443-2.466.72-.128 1.698-.221 2.617-.268a52 52 0 0 1 2.64-.07 41 41 0 0 1 2.63.07c.918.047 1.895.14 2.617.268 1.547.279 2.268 1.012 2.454 2.466.128.965.14 2.78.058 3.908"/></svg>
